X: 6492
T: Cat Needs Feeding, The
R: jig
M: 6/8
K: Eminor
B|BeB AeA|GeG ~E3|B2g fec|BGg fec|BcA BGA|
FGE ~F3|BGg fec|BfF E2:|:F|GeG FGE|gfe c2e|
AeA GAF|fec B2f|fBf eBe|cBc B2g|gBg feB|~c3 c2c|
BcA BGA|FGE ~F3|BGg fec|1 BfF E2:|2 BfF E2||

